X:1
T:All the Rage -- Reel
R:reel
B:Ryan's Mammoth Collection
N: 303
Z: Contributed by Ray Davies,  ray:davies99.freeserve.co.uk
M:C|
L:1/8
K:G
ud|\
vkg2vdB kg2dB | vg2vfg afdf | kg2dB kg2dB | .e(gf)(a g2)z2 :|
|:vBcdB cBAG | FGAB {d}c2BA | \
BcdB cBAG |1 (FA)DF G2d2 :|2 (FA)DF G2z2 |]
